X: 2
T: Lochiel House March, The
Z: ceolachan
S: https://thesession.org/tunes/6894#setting18476
R: barndance
M: 4/4
L: 1/8
K: Dmaj
|: A2 |d3 e d2 A2 | BcdB A2 GF | G2 B2 A2 d2 | f2 e2 e2 A2 |
d2 de d2 A2 | BcdB A2 GF | E>FGA Bcde | f2 d2 d2 :|
|: f2 |a3 b a2 gf | g3 a g2 fe | f2 ed a2 gf | f2 e2 e2 fg |
a2 ab a2 gf | g2 ga g2 fe | f2 ed A2 c2 | d3 d d2 :|
